X: 042
M: C|
L: 1/8
K: Dmix
V: 1
dABF AA/A/ AB | dABF E/E/E Ee |\
dABF AA/A/ (Tf>e) | dBAF DD/D/ D :|
|: g |\
fdaf e(gTfe) | fdfa BB/B/ Bg |\
fdaf e(gTfe) | dBAF D/D/D D :|
V: 2 clef=bass middle=d
z |\
d2d2 d2d2 | d2d2 e2e2 |\
d2d2 A2A2 | G2A2 D2D :|\
|: z |
d2d2 e2e2 | d2d2 e2e2 |\
d2d2 A2A2 | G2A2 D2D :|

